X:1
T:Old Bangum
M:2/4
L:1/8
K:F
 C| CF FE| FG A2| B/2 B3/2 G2| E/2 C3 C/2| CF FE| FG A2| B/2 B3/2 c2|\
 z2 z G| cc cA| BA GG| AA F/2F/2 F| GG E2| F/2 F3/2 G2| C/2 C3/2 E2|\
 F2 z2|

